src/4-icons/id.svg

<svg width="260" height="260" viewBox="0 0 260 260" fill="none" xmlns="http://www.w3.org/2000/svg">
<path fill-rule="evenodd" clip-rule="evenodd" d="M15 45C6.71573 45 0 51.7157 0 60V200C0 208.284 6.71572 215 15 215H245C253.284 215 260 208.284 260 200V60C260 51.7157 253.284 45 245 45H15ZM24 59C18.4772 59 14 63.4772 14 69V191C14 196.523 18.4772 201 24 201H236C241.523 201 246 196.523 246 191V69C246 63.4772 241.523 59 236 59H24Z" fill="black"/>
<path d="M24.1731 167C24.1731 167 21.2249 165.036 30.0648 146.184C37.6545 130.922 49.8336 129.045 69.0585 128.818C87.7065 128.595 102.87 131.703 110.89 146.184C118.678 165.072 116.616 167 116.616 167H101.544C101.424 167 101.31 166.949 101.23 166.86L98.9908 164.361C98.8156 164.166 98.5655 164.054 98.303 164.054C97.7928 164.054 97.3793 164.468 97.3793 164.978V167H42.0618C41.915 167 41.796 166.881 41.796 166.734V164.904C41.796 164.436 41.4143 164.058 40.946 164.062C40.6714 164.064 40.4152 164.2 40.2593 164.426L38.484 167H24.1731Z" fill="black"/>
<path d="M63.4383 124.36C65.2007 125.044 68.4918 125.289 69.3534 125.291C69.3534 125.291 73.2351 125.257 75.496 124.36C78.0438 123.349 79.4632 122.361 81.1836 120.189C82.1432 118.977 82.9309 117.046 83.4095 115.688C83.7744 114.652 84.0021 113.576 84.1787 112.492L85.9612 101.551C85.9612 101.551 86.1925 99.8522 86.1886 98.7578C86.1795 96.155 85.84 94.6269 84.8236 92.2408C83.7798 89.7902 82.8668 88.4785 80.9561 86.655C78.9192 84.7111 77.4512 83.8619 74.8135 82.9459C72.7655 82.2348 71.5159 82.0183 69.3534 82C67.0325 82.0814 66.1683 82.2327 63.9532 82.9459C61.7362 83.7133 59.4729 85.0733 57.7507 86.655C56.0285 88.2367 54.8231 90.1088 53.8831 92.2409C52.9431 94.3729 52.5189 96.4312 52.5181 98.7578C52.5183 99.6351 52.6115 100.683 52.7456 101.551L54.8457 112.255C55.0791 113.445 55.377 114.622 55.8084 115.755C56.3477 117.171 57.171 119.115 57.9782 120.17C59.346 121.958 61.3299 123.541 63.4383 124.36Z" fill="black"/>
<path d="M130 136C130 132.134 133.134 129 137 129H223C226.866 129 230 132.134 230 136C230 139.866 226.866 143 223 143H137C133.134 143 130 139.866 130 136Z" fill="black"/>
<path d="M130 160C130 156.134 133.134 153 137 153H223C226.866 153 230 156.134 230 160C230 163.866 226.866 167 223 167H137C133.134 167 130 163.866 130 160Z" fill="black"/>
<path d="M130 111C130 107.134 133.134 104 137 104H185C188.866 104 192 107.134 192 111C192 114.866 188.866 118 185 118H137C133.134 118 130 114.866 130 111Z" fill="black"/>
</svg>

<svg width="260" height="260" viewBox="0 0 260 260" fill="none" xmlns="http://www.w3.org/2000/svg"><path fill-rule="evenodd" clip-rule="evenodd" d="M15 45C6.716 45 0 51.716 0 60v140c0 8.284 6.716 15 15 15h230c8.284 0 15-6.716 15-15V60c0-8.284-6.716-15-15-15H15Zm9 14c-5.523 0-10 4.477-10 10v122c0 5.523 4.477 10 10 10h212c5.523 0 10-4.477 10-10V69c0-5.523-4.477-10-10-10H24Z" fill="#000"/><path d="M24.173 167s-2.948-1.964 5.892-20.816c7.59-15.262 19.769-17.139 38.993-17.366 18.648-.223 33.812 2.885 41.832 17.366 7.788 18.888 5.726 20.816 5.726 20.816h-15.072a.422.422 0 0 1-.314-.14l-2.24-2.499a.925.925 0 0 0-1.61.617V167H42.061a.266.266 0 0 1-.266-.266v-1.83a.842.842 0 0 0-1.537-.478L38.484 167h-14.31Zm39.265-42.64c1.763.684 5.054.929 5.915.931 0 0 3.882-.034 6.143-.931 2.548-1.011 3.967-1.999 5.688-4.171.96-1.212 1.747-3.143 2.225-4.501.365-1.036.593-2.112.77-3.196l1.782-10.941s.231-1.699.228-2.793c-.01-2.603-.349-4.131-1.365-6.517-1.044-2.45-1.957-3.763-3.868-5.586-2.037-1.944-3.505-2.793-6.142-3.71-2.048-.71-3.298-.927-5.46-.945-2.322.081-3.186.233-5.4.946-2.218.767-4.481 2.127-6.203 3.709-1.722 1.582-2.928 3.454-3.868 5.586s-1.364 4.19-1.365 6.517c0 .877.093 1.925.228 2.793l2.1 10.704c.233 1.19.531 2.367.962 3.5.54 1.416 1.363 3.36 2.17 4.415 1.368 1.788 3.352 3.371 5.46 4.19ZM130 136a7 7 0 0 1 7-7h86a7 7 0 1 1 0 14h-86a7 7 0 0 1-7-7Zm0 24a7 7 0 0 1 7-7h86a7 7 0 1 1 0 14h-86a7 7 0 0 1-7-7Zm0-49a7 7 0 0 1 7-7h48a7 7 0 1 1 0 14h-48a7 7 0 0 1-7-7Z" fill="#000"/></svg>
